X: 312
T: O.P. Hat
R: reel
M: 2/4
L: 1/8
Z: 2012 John Chambers <jc:trillian.mit.edu>
B: J. Anderson "Budget of Strathspeys, Reels and Country Dances" (Early 1800s) p.31 #2
F: http://imslp.org/wiki/Anderson%27s_Budget_of_Strathspeys,_Reels_and_Country_Dances_(Various)
N: Added triplet notation in next-to-last bar.
K: C
Gc |\
e2Gc | e2Gc | fgef | d2(GB) | d2(GB) | d2(GB) | efde c2 :||: (g>f) |
(fe)(ed) | c2(c'b) | ba^ga | a2(fe) | (ed)(dc) | BdgB | ((3dcB) ((3dcB) | c2 :|

%%sep 2 1 500
%%sep 1 1 500

